X:1
T:AMERICAN MARCH
T:AMERICAN MARCH
T:JUSTIN CLÉRICE
T:POUR PIANO
T:à Henri JOSÉ
T:H. 692 et Cia
T:H. 692 et Cia
T:H. 692 et Cia
T:H. 692 et Cia
T:H. 692 et Cia
T:H. 692 et Cia
C:JUSTIN CLÉRICE
Z:H. 692 et Cia
%%score { 1 | ( 2 3 ) }
L:1/8
Q:1/4=170
M:6/8
K:F
V:1 treble nm="Piano" snm="Pno."
V:2 bass 
V:3 bass 
V:1
"^Allegro bien rythmé"!f! [cc']2 [=B=b] [cc']3- | [cc'][dd'][Aa] [_B_b]2 .[dd'] | %2
 .[Gg]2 .[^F^f] .[Gg]2 .[Aa] |!<(! .[Bb]2 .[cc'] .[dbd']2 .[ee']!<)! ||!ff! !>![fac'f']6- | %5
 [fac'f'] z!p! .[ee'] [dd']2 .[^c^c'] | .[ee']2 z .[dd']2 z | .[Gg]2!<(! z .[Aa]2 z!<)! | %8
!ff! [cegc']6- | [cegc'] z!p! .[Bb] .[Dd]2 .[Ee] | .[Gg]2 z .[Ff]2 z | .[Aa]2 z .[cc']2 z | %12
!ff!!>(! !>![eae']6- | [eae']2 .[ad']!>)! .[a^c']2 .[ad'] | .[be']2 z .[bd']2 z | %15
 .[b^c']2!<(! z .[bd']2 z!<)! |!ff!!>(! !>![ebe']6- | [ebe']2!>)! [bd'] [b^c']2 [bd'] | %18
 .[ad']2 z .[ac']2 z | .[^g=b]2!<(! z .[ac']2 z!<)! |!ff! !>![fac'f']6- | %21
 [fac'f'] z!p! .[ee'] [dd']2 .[^c^c'] | .[ee']2 z .[dd']2 z | .[Gg]2!<(! z .[Aa]2 z!<)! | %24
!ff! !>![cegc']6- | [cegc'] z!p! .[Bb] .[Dd]2 .[Ee] | .[Gg]2 z .[Ff]2 z | %27
!<(! .[Aa]2 z .[cc']2 z!<)! |!ff! !>![gd'g']6- | [gd'g']2 .[ff'] .[dd']2 .[=B=b] | !>![dad']6- | %31
 [dad']2 [cc'] [=B=b]2 [Aa] |!>(! (!>![cc']3 [=B=b]2)!>)! .e |!>(! (!>![cc']3 [=B=b]2)!>)! .e | %34
 [Aa] z"^pesante" z!ff! !>!C3 | !>!D3 !>!F3 |:"^Tempo" !^!A z z!p! .[faf'].[faf'].[faf'] | %37
 .[fad']2 .[fad'] .[faf']2 .[faf'] | .[ebe'] z z!ff!"^pesante" !>!C3 | !>!D3 !>!F3 | %40
"^Tempo" !^!B z z!p! [gbg'][gbg'][gbg'] | .[fbf']2 .[fbf'] .[ebe']2 .[ebe'] | %42
 [dad'] z z!ff!"^pesante." !>!C3 | !>!D3 !>!F3 |"^Tempo" !^!A z z!p! .[faf'].[faf'].[faf'] | %45
 .[fad']2 .[fad'] .[f_af']2 .[faf'] | .[ege']2 z (!>![cc']2 =b/a/ | g) z z (!>!c2 =B/A/ | %48
 G) z E EFG |1 .A2 .F .=B2 .G | .c2 z!ff!"^pesante." !>!C3 | !>!D3 !>!F3 :|2 .A2 .F .d2 .=B || %53
 c2 c !>![cc']3- | [cc']!<(![=B=b][cc'] [^c^c'][dd'][ee']!<)! |!ff! [fac'f']6- | %56
 [fac'f'] z!p! .[ee'] .[dd']2 .[^c^c'] | .[ee']2 z .[dd']2 z | .[Gg]2!<(! z .[Aa]2 z!<)! | %59
!ff! [cegc']6- | [cegc'] z .[Bb] .[Dd]2 .[Ee] | .[Gg]2 z .[Ff]2 z |!<(! .[Aa]2 z .[cc']2 z!<)! | %63
!ff! !>![eae']6- | [eae']2 .[ad'] .[a^c']2 .[ad'] | .[be']2 z .[bd']2 z | %66
 .[b^c']2!<(! z .[bd']2 z!<)! |!ff!!>(! !>![ebe']6- | [ebe']2!>)! [bd'] [b^c']2 [bd'] | %69
 .[ad']2 z .[ac']2 z | .[^g=b]2!<(! z .[ac']2 z!<)! |!ff! !>![fac'f']6- | %72
 [fac'f'] z!p! .[ee'] [dd']2 .[^c^c'] | .[ee']2 z .[dd']2 z | .[Gg]2!<(! z .[Aa]2 z!<)! | %75
!ff! !>![cegc']6- | [cegc'] z!p! .[Bb] .[Dd]2 .[Ee] | .[Gg]2 z .[Ff]2 z | %78
!<(! .[Aa]2 z .[cc']2 z!<)! |!ff! !>![g_e'g']6- | [ge'g']2 [ff'] [cc']2 [Aa] |!<(! [Ada]3 [Gdg]3 | %82
 [dd']3 [gg']3!<)! |!ff! (!>![fbf']3 [bd']2) z | (!>![ebe']3 [bc']2) z | %85
!ff! !>![faf']2 !>!c' !>![ff']2 !>!c' | !>![ff'] z z z2 z ||[K:Bb]!ff! FFF !>!F3- |!>(! F6!>)! | %89
!pp!"^(Echo)" FFF !>!F3- |!>(! F6!>)! ||!p!"^exagérez"!<(! (D6!<)! |!ff! !^!F) z z z2 z | %93
!p!"^légérement" .B,2 .C .A,2 .B, | .G,2 .G, !>!C3 | .B,2 .C .A,2 .B, | .G,2 .G, !>!C3 | D3 C2 B, | %98
 C z z!ff! !^![FAcf] z z |!p!"^exagérez"!<(! (D6!<)! |!ff! !^!F) z z z2 z | %101
!p!"^légérement" .B,2 .C .A,2 .B, | .G,2 .G, !>!C3 | .B,2 .C .A,2 .B, | .G,2 .G, !>!C3 | %105
 .D2 .B, .C2 .A, | .B, z z z2 z |!p!"^exagerez"!<(! (d6!<)! |!ff! !^!f) z z z2 z | %109
!p!"^léger" .B2 .c .A2 .B | .G2 .G !>!c3 | .B2 .c .A2 .B | .G2 .G !>!c3 | d3 c2 B | %114
 c2 z!ff! !^![fac'f'] z z |!p!"^exagérez"!<(! (d6!<)! |!ff! !^!f) z z z2 z | %117
!p!"^léger" .B2 .c .A2 .B | .G2 .G !>!c3 | .B2 .c .A2 .B | .G2 .G !>!c3 | .d2 .B .c2 .A | %122
 B2 z!ff! ddd |:!ff!!>(! (!>![GBdg]3 d2)!>)! .g |!ff!!>(! (!>![Ada]3 d2)!>)! .a | %125
!ff! [Bdb]2 [dd'] [cc']2 [Bb] | !^![A^fa]2 !^![gb] !^![fa] z ^F |!p! !>!A3 =E^FG | %128
!<(! A=B^c =e2 ^f!<)! | d=e^f (!>!=b2 d' | a2) !>!d!ff! !>!d!>!d!>!d | %131
!ff!!>(! (!>![GBdg]3 d2)!>)! .g |!>(! (!>![Ada]3 d2)!>)! .a | [Bdb]2 [dd'] [cc']2 [Bb] | %134
 !^![A^fa]2 !^![gb] !^![fa] z!p! ^f | a3 =e^fg | a=b^c' =e'2 ^f' | d'2 a !>![dd']3 | %138
 [dd']a[dd'] [dd']a[dd'] | d'2 a !>![dd']3 | [dd'][cc'][dd'] [dd'][cc'][dd'] | %141
!ff!"^Tempo fièrement" (([dd']6 | !^![ff'])) z z z2 z | .[Bb]2 .[cc'] .[Aa]2 .[Bb] | %144
 .[Gg]2 .[Gg] !>![cc']3 | .[Bb]2 .[cc'] .[Aa]2 .[Bb] | .[Gg]2 .[Gg] !>![cc']3 | %147
 !>![dd']3 [cc']2 [Bb] | [cc']3!fff! !^![fac'f'] z z |!ff! (([dd']6 | !^![ff'])) z z z2 z | %151
 .[Bb]2 .[cc'] .[Aa]2 .[Bb] | .[Gg]2 .[Gg] !>![cc']3 | .[Bb]2 .[cc'] .[Aa]2 .[Bb] | %154
 .[Gg]2 .[Gg] !>![cc']3 | .[dd']2 .[Bb] .[cc']2 .[Aa] | [Bb]2 z z2 z :| %157
[K:F]!f!"^CODA" [cc']2 [=B=b] !>![cc']3- | [cc'][dd'][Aa] [_B_b]2 .[dd'] | %159
 .[Gg]2 .[^F^f] .[Gg]2 .[Aa] |!<(! .[Bb]2 .[cc'] .[dbd']2 .[ee']!<)! ||!ff! !>![fac'f']6- | %162
 [fac'f'] z!p! .[ee'] [dd']2 .[^c^c'] | .[ee']2 z .[dd']2 z | .[Gg]2!<(! z .[Aa]2 z!<)! | %165
!ff! [cegc']6- | [cegc'] z!p! .[Bb] .[Dd]2 .[Ee] | .[Gg]2 z .[Ff]2 z |!<(! .[Aa]2 z .[cc']2 z!<)! | %169
!ff!!>(! !>![eae']6- | [eae']2 .[ad']!>)! .[a^c']2 .[ad'] | .[be']2 z .[bd']2 z | %172
 .[b^c']2!<(! z .[bd']2 z!<)! |!ff!!>(! !>![ebe']6- | [ebe']2!>)! [bd'] [b^c']2 [bd'] | %175
 .[ad']2 z .[ac']2 z | .[^g=b]2!<(! z .[ac']2 z!<)! |!ff! !>![fac'f']6- | %178
 [fac'f'] z!p! .[ee'] [dd']2 .[^c^c'] | .[ee']2 z .[dd']2 z | .[Gg]2!<(! z .[Aa]2 z!<)! | %181
!ff! !>![cegc']6- | [cegc'] z!p! .[Bb] .[Dd]2 .[Ee] | .[Gg]2 z .[Ff]2 z | %184
!<(! .[Aa]2 z .[cc']2 z!<)! |!ff! !>![gd'g']6- | [gd'g']2 .[ff'] .[dd']2 .[=B=b] | !>![dad']6- | %188
 [dad']2 [cc'] [=B=b]2 [Aa] |!>(! (!>![cc']3 [=B=b]2)!>)! .e |!>(! (!>![cc']3 [=B=b]2)!>)! .e | %191
 [Aa] z"^pesante" z!ff! !>!C3 | !>!D3 !>!F3 |"^Tempo" !^!A z z!p! .[faf'].[faf'].[faf'] | %194
 .[fad']2 .[fad'] .[faf']2 .[faf'] | .[ebe'] z z!ff!"^pesante" !>!C3 | !>!D3 !>!F3 | %197
"^Tempo" !^!B z z!p! [gbg'][gbg'][gbg'] | .[fbf']2 .[fbf'] .[ebe']2 .[ebe'] | %199
 [dad'] z z!ff!"^pesante." !>!C3 | !>!D3 !>!F3 |"^Tempo" !^!A z z!p! .[faf'].[faf'].[faf'] | %202
 .[fad']2 .[fad'] .[f_af']2 .[faf'] | .[ege']2 z (!>![cc']2 =b/a/ | g) z z (!>!c2 =B/A/ | %205
 G) z E EFG | .A2 .F .d2 .=B | c2 c !>![cc']3- | [cc']!<(![=B=b][cc'] [^c^c'][dd'][ee']!<)! || %209
!ff! [fac'f']6- | [fac'f'] z!p! .[ee'] .[dd']2 .[^c^c'] | .[ee']2 z .[dd']2 z | %212
 .[Gg]2!<(! z .[Aa]2 z!<)! |!ff! [cegc']6- | [cegc'] z .[Bb] .[Dd]2 .[Ee] | .[Gg]2 z .[Ff]2 z | %216
!<(! .[Aa]2 z .[cc']2 z!<)! |!ff!!>(! !>![eae']6- | [eae']2!>)! .[ad'] .[a^c']2 .[ad'] | %219
 .[be']2 z .[bd']2 z | .[b^c']2!<(! z .[bd']2 z!<)! |!ff!!>(! !>![ebe']6- | %222
 [ebe']2!>)! [bd'] [b^c']2 [bd'] | .[ad']2 z .[ac']2 z | .[^g=b]2!<(! z .[ac']2 z!<)! | %225
!ff! !>![fac'f']6- | [fac'f'] z .[ee']!p! .[dd']2 .[^c^c'] | .[ee']2 z .[dd']2 z | %228
 .[Gg]2!<(! z .[Aa]2 z!<)! |!ff!!>(! !>![cegc']6- | [cegc']!>)! z!p! .[Bb] .[Dd]2 .[Ee] | %231
 .[Gg]2 z .[Ff]2 z |!<(! .[Aa]2 z .[cc']2 z!<)! |!ff! !>![g_e'g']6- | %234
 [ge'g']2!p! [ff'] [cc']2 [Aa] |!<(! [Ada]3 [Gdg]3 | [dd']3 [gg']3!<)! | %237
!ff! (!>![fbf']3 [bd']2) z | (!>![ebe']3 [bc']2) z |!ff! !>![faf']2 !>!c' !>![ff']2 !>!c' | %240
 !>![ff'] z z z2 z |] %241
V:2
 C2 =B, C3- | CDA, _B,2 .D | .G,2 .[A,,A,] .[B,,B,]2 .[^F,,^F,] | [G,,G,]2 z ((!>![C,,C,]3 || %4
 [F,,,F,,]2)) !>![F,,F,] !>![G,,G,]2 !>![^G,,^G,] | !>![A,,A,]2 z [F,,F,]2 z | %6
 [B,,,B,,]2 [B,D] G,2 [B,D] | D,2 [B,D] G,2 [B,D] | [C,,C,]2 !>![C,,C,] !>![D,,D,]2 !>![^D,,^D,] | %9
 !>![E,,E,]2 z [C,,C,]2 z | [F,,F,]2 [A,C] C,2 [A,C] | F,2 [A,C] C,2 [A,C] | %12
 !arpeggio!!>![F,A,C]2 [A,C] C,2 [A,C] | F,2 [A,C] C,2"^élégant" [A,C] | G,2 [B,C] C,2 [B,C] | %15
 G,2 [B,C] C,2 [B,C] | !arpeggio!!>![G,B,C]2 [B,C] C,2 [B,C] | G,2 [B,C] C,2 [B,C] | %18
 F,2 [A,C] C,2 [A,C] | F,2 [A,C] C,2 [A,C] | [F,,,F,,]2 !>![F,,F,] !>![G,,G,]2 !>![^G,,^G,] | %21
 !>![A,,A,]2 z [F,,F,]2 z | [B,,,B,,]2 [B,D] G,2 [B,D] | D,2 [B,D] G,2 [B,D] | %24
 !>![C,,C,]2 !>![C,,C,] !>![D,,D,]2 !>![^D,,^D,] | !>![E,,E,]2 z [C,,C,]2 z | %26
 [F,,F,]2 [A,C] C,2 [A,C] | F,2 [A,C] C,2 [A,C] | [D,,D,]2 z [F,A,D]2 z | %29
 [F,A,D]2 z [D,F,A,=B,]2 z | %30
"_Copyright by HACHETTE et Cie 1901.\nParis, HACHETTE et Cie editeurs, 79 Bd St Germain.\n" [E,,E,]2 [E,A,] [E,A,C]2 [E,A,] | %31
 [E,A,C]2 z [A,C]2 z | !^![E,,E,]2 [E,^G,D] [E,G,D]2 z | !^![E,,E,]2 [E,^G,D] [E,G,D]2 z | %34
 [A,C] z z !>![C,,C,]3 | !>![D,,D,]3 !>![F,,F,]3 |: !^![F,,,F,,] z [A,C] C,2"^léger" [A,C] | %37
 F,2 [A,C] C,2 [A,C] | [G,B,C] z z !>![C,,C,]3 | !>![D,,D,]3 !>![F,,F,]3 | %40
 !^![G,,G,] z [B,C] C,2"^léger" [B,C] | G,2 [B,C] C,2 [B,C] | [F,A,C] z z !>![C,,C,]3 | %43
 !>![D,,D,]3 !>![F,,F,]3 | !^![F,,,F,,] z [A,C] C,2 [A,C] | F,2 [A,C] C,2 [_A,C] | %46
 [G,CE]2 z (!>![^F,A,CE]3 | [G,CE]) z z ([^F,,A,,C,E,]3 | [G,,C,E,]2) z [E,G,C]2 z |1 %49
 G,,2 z [F,G,=B,]2 z | [C,E,G,C]2 z !>![C,,C,]3 | !>![D,,D,]3 !>![F,,F,]3 :|2 %52
 G,,2 z [F,G,=B,]2 z || [C,E,G,C]2 C !>!C3 | [C,C]3 [C,,C,]3 | %55
 [F,,,F,,]2 !>![F,,F,] !>![G,,G,]2 !>![^G,,^G,] | !>![A,,A,]2 z [F,,F,]2 z | %57
 [B,,,B,,]2 [B,D] G,2 [B,D] | D,2 [B,D] G,2 [B,D] | [C,,C,]2 !>![C,,C,] !>![D,,D,]2 !>![^D,,^D,] | %60
 !>![E,,E,]2 z [C,,C,]2 z | [F,,F,]2 [A,C] C,2 [A,C] | F,2 [A,C] C,2 [A,C] | %63
 !arpeggio!!>![F,A,C]2 [A,C] C,2 [A,C] | F,2 [A,C] C,2 [A,C] | G,2 [B,C] C,2 [B,C] | %66
 G,2 [B,C] C,2 [B,C] | !arpeggio!!>![G,B,C]2 [B,C] C,2 [B,C] | G,2 [B,C] C,2 [B,C] | %69
 F,2 [A,C] C,2 [A,C] | F,2 [A,C] C,2 [A,C] | [F,,,F,,]2 !>![F,,F,] !>![G,,G,]2 !>![^G,,^G,] | %72
 !>![A,,A,]2 z [F,,F,]2 z | [B,,,B,,]2 [B,D] G,2 [B,D] | D,2 [B,D] G,2 [B,D] | %75
 !>![C,,C,]2 !>![C,,C,] !>![D,,D,]2 !>![^D,,^D,] | !>![E,,E,]2 z [C,,C,]2 z | %77
 [F,,F,]2 [A,C] C,2 [A,C] | F,2 [A,C] C,2 [A,C] | !>![F,,F,]2 !>![F,,F,] !>![A,,A,]2 !>![_A,,_A,] | %80
 !>![=A,,=A,]2 z [F,,F,]2 z | [B,,,B,,]2 [G,B,D] [G,B,D]2 [G,B,D] | G,2 [B,D] D,2 [B,D] | %83
 [C,,C,]2 [F,B,D] [F,B,D]2 z | [C,,C,]2 [G,B,CE] [G,B,CE]2 z | %85
 !>![F,,,F,,]2 !>!C,, !>![F,,,F,,]2 !>!C,, | !>![F,,,F,,] z z z2 z ||[K:Bb] F,F,F, F,3- | F,6 | %89
 F,F,F, F,3- | F,6 || !arpeggio![B,,D,F,]2 z [A,,D,F,]2 z | [G,,E,F,]2 z [A,,E,F,]2 z | %93
 !arpeggio!!>![B,,D,F,]2 z [A,,D,F,]2 z | [G,,E,F,]2 z [A,,E,F,]2 z | %95
 !arpeggio!!>![B,,D,F,]2 z [A,,D,F,]2 z | [G,,E,F,]2 z [A,,E,F,]2 z | %97
 !arpeggio!!>![B,,D,F,]2 z [G,,C,=E,]2 z | [A,,C,F,] z z !^![F,,,F,,] z z | %99
 !arpeggio![B,,D,F,]2 z [A,,D,F,]2 z | [G,,E,F,]2 z [A,,E,F,]2 z | %101
 !arpeggio!!>![B,,D,F,]2 z [A,,D,F,]2 z | [G,,E,F,]2 z [A,,E,F,]2 z | %103
 !arpeggio!!>![B,,D,F,]2 z [A,,D,F,]2 z | [G,,E,F,]2 z [A,,E,F,]2 z | %105
 !arpeggio![B,,D,F,]2 z [F,,E,F,]2 z | [B,,D,F,]2 z !^![B,,,B,,]2 z | %107
 !arpeggio!!^![B,DF]2 z [A,DF]2 z | [G,EF]2 z [A,EF]2 z | !arpeggio!!^![B,DF]2 z [A,DF]2 z | %110
 [G,EF]2 z [A,EF]2 z | !arpeggio!!>![B,DF]2 z [A,DF]2 z | [G,EF]2 z [A,EF]2 z | %113
 !arpeggio!!^![B,DF]2 z [G,C=E]2 z | [A,CF]2 z !^![F,,A,,C,F,] z z | %115
 !arpeggio!!^![B,DF]2 z [A,DF]2 z | [G,EF]2 z [A,EF]2 z | !arpeggio!!^![B,DF]2 z [A,DF]2 z | %118
 [G,EF]2 z [A,EF]2 z | !arpeggio!!>![B,DF]2 z [A,DF]2 z | [G,EF]2 z [A,EF]2 z | %121
 [B,DF]2 z [F,EF]2 z | [B,DF]2 z z2 z |: !^![G,,G,]2 [G,B,D] [G,B,D]2 z | %124
 !^![^F,,^F,]2 [F,A,D] [F,A,D]2 z | !>![G,,G,]3 !>![B,,B,]3 | !^![D,D]2 !^![^C,^C] !^![D,D] z z | %127
 A,,2 [=E,G,A,] [E,G,A,]2 z | A,,2 [=E,G,A,] [E,G,A,]2 z | [D,^F,A,]2 z (!>![D,=F,^G,=B,]3 | %130
 [D,^F,A,]2) z z2 z | !^![G,,G,]2 [G,B,D] [G,B,D]2 z | !^![^F,,^F,]2 [F,A,D] [F,A,D]2 z | %133
 !>![G,,G,]3 !>![B,,B,]3 | !^![D,D]2 !^![^C,^C] !^![D,D] z z | A,,2 [=E,G,A,] [E,G,A,]2 z | %136
 A,,2 [=E,G,A,] [E,G,A,]2 z | D2 A, !>!D3 | DA,D DA,D | D2 A, !>!D3 | D"^rit. poco"CD DCD | %141
 !arpeggio![B,DF]2 z"^tutta forza" [A,DF]2 z | [G,EF]2 z [A,EF]2 z | %143
 !arpeggio![B,DF]2 z [A,DF]2 z | [G,EF]2 z [A,EF]2 z | !arpeggio![B,DF]2 z [A,DF]2 z | %146
 [G,EF]2 z [A,EF]2 z | !arpeggio!!^![B,DF]2 z [G,C=E]2 z | [A,CF]2 z !^![F,,A,,C,F,] z z | %149
 !arpeggio![B,DF]2 z [A,DF]2 z | [G,EF]2 z [A,EF]2 z | !arpeggio![B,DF]2 z [A,DF]2 z | %152
 [G,EF]2 z [A,EF]2 z | !arpeggio![B,DF]2 z [A,DF]2 z | [G,EF]2 z [A,EF]2 z | %155
 !arpeggio![B,DF]2 z !arpeggio![F,A,CF]2 z | !arpeggio![B,DF]2 z z2 z :|[K:F] C2 =B, !>!C3- | %158
 CDA, _B,2 .D | .G,2 .[A,,A,] .[B,,B,]2 .[^F,,^F,] | [G,,G,]2 z ((!>![C,,C,]3 || %161
 [F,,,F,,]2)) !>![F,,F,] !>![G,,G,]2 !>![^G,,^G,] | !>![A,,A,]2 z [F,,F,]2 z | %163
 [B,,,B,,]2 [B,D] G,2 [B,D] | D,2 [B,D] G,2 [B,D] | [C,,C,]2 !>![C,,C,] !>![D,,D,]2 !>![^D,,^D,] | %166
 !>![E,,E,]2 z [C,,C,]2 z | [F,,F,]2 [A,C] C,2 [A,C] | F,2 [A,C] C,2 [A,C] | %169
 !arpeggio!!>![F,A,C]2 [A,C] C,2 [A,C] | F,2 [A,C] C,2"^élégant" [A,C] | G,2 [B,C] C,2 [B,C] | %172
 G,2 [B,C] C,2 [B,C] | !arpeggio!!>![G,B,C]2 [B,C] C,2 [B,C] | G,2 [B,C] C,2 [B,C] | %175
 F,2 [A,C] C,2 [A,C] | F,2 [A,C] C,2 [A,C] | !>![F,,F,]2 !>![F,,F,] !>![G,,G,]2 !>![^G,,^G,] | %178
 !>![A,,A,]2 z [F,,F,]2 z | [B,,,B,,]2 [B,D] G,2 [B,D] | D,2 [B,D] G,2 [B,D] | %181
 !>![C,,C,]2 !>![C,,C,] !>![D,,D,]2 !>![^D,,^D,] | !>![E,,E,]2 z [C,,C,]2 z | %183
 [F,,F,]2 [A,C] C,2 [A,C] | F,2 [A,C] C,2 [A,C] | [D,,D,]2 z [F,A,D]2 z | %186
 [F,A,D]2 z [D,F,A,=B,]2 z | [E,,E,]2 [E,A,] [E,A,C]2 [E,A,] | [E,A,C]2 z [A,C]2 z | %189
 !^![E,,E,]2 [E,^G,D] [E,G,D]2 z | !^![E,,E,]2 [E,^G,D] [E,G,D]2 z | [A,C] z z !>![C,,C,]3 | %192
 !>![D,,D,]3 !>![F,,F,]3 | !^![F,,,F,,] z [A,C] C,2"^léger" [A,C] | F,2 [A,C] C,2 [A,C] | %195
 [G,B,C] z z !>![C,,C,]3 | !>![D,,D,]3 !>![F,,F,]3 | !^![G,,G,] z [B,C] C,2"^léger" [B,C] | %198
 G,2 [B,C] C,2 [B,C] | [F,A,C] z z !>![C,,C,]3 | !>![D,,D,]3 !>![F,,F,]3 | %201
 !^![F,,,F,,] z [A,C] C,2 [A,C] | F,2 [A,C] C,2 [_A,C] | [G,CE]2 z (!>![^F,A,CE]3 | %204
 [G,CE]) z z ([^F,,A,,C,E,]3 | [G,,C,E,]2) z [E,G,C]2 z | G,,2 z [F,G,=B,]2 z | [C,E,G,C]2 C C3 | %208
 [C,C]3 (([C,,C,]3 || [F,,,F,,]2)) !>![F,,F,] !>![G,,G,]2 !>![^G,,^G,] | !>![A,,A,]2 z [F,,F,]2 z | %211
 [B,,,B,,]2 [B,D] G,2 [B,D] | D,2 [B,D] G,2 [B,D] | [C,,C,]2 !>![C,,C,] !>![D,,D,]2 !>![^D,,^D,] | %214
 !>![E,,E,]2 z [C,,C,]2 z | [F,,F,]2 [A,C] C,2 [A,C] | F,2 [A,C] C,2 [A,C] | %217
 !arpeggio!!>![F,A,C]2 [A,C] C,2 [A,C] | F,2"^élégant" [A,C] C,2 [A,C] | G,2 [B,C] C,2 [B,C] | %220
 G,2 [B,C] C,2 [B,C] | !arpeggio!!>![G,B,C]2 [B,C] C,2 [B,C] | G,2 [B,C] C,2 [B,C] | %223
 F,2 [A,C] C,2 [A,C] | F,2 [A,C] C,2 [A,C] | [F,,,F,,]2 !>![F,,F,] !>![G,,G,]2 !>![^G,,^G,] | %226
 !>![A,,A,]2 z [F,,F,]2 z | [B,,,B,,]2 [B,D] G,2 [B,D] | D,2 [B,D] G,2 [B,D] | %229
 !>![C,,C,]2 !>![C,,C,] !>![D,,D,]2 !>![^D,,^D,] | !>![E,,E,]2 z [C,,C,]2 z | %231
 [F,,F,]2 [A,C] C,2 [A,C] | F,2 [A,C] C,2 [A,C] | !>![F,,F,]2 !>![F,,F,] !>![A,,A,]2 !>![_A,,_A,] | %234
"_Paris, Imp. Mergauit, 12 rue Martel." !>![=A,,=A,]2 z [F,,F,]2 z | %235
 [B,,,B,,]2 [G,B,D] [G,B,D]2 [G,B,D] | G,2 [B,D] D,2 [B,D] | [C,,C,]2 [F,B,D] [F,B,D]2 z | %238
 [C,,C,]2 [G,B,CE] [G,B,CE]2 z | !>![F,,,F,,]2 !>!C,, !>![F,,,F,,]2 !>!C,, | %240
 !>![F,,,F,,] z z z2 z |] %241
V:3
 x6 | x6 | x6 | x6 || x6 | x6 | x6 | x6 | x6 | x6 | x6 | x6 | x6 | x6 | x6 | x6 | x6 | x6 | x6 | %19
 x6 | x6 | x6 | x6 | x6 | x6 | x6 | x6 | x6 | x6 | x6 | x6 | x6 | x6 | x6 | x6 | x6 |: x6 | x6 | %38
 x6 | x6 | x6 | x6 | x6 | x6 | x6 | x6 | x6 | x6 | x6 |1 x6 | x6 | x6 :|2 x6 || x6 | x6 | x6 | x6 | %57
 x6 | x6 | x6 | x6 | x6 | x6 | x6 | x6 | x6 | x6 | x6 | x6 | x6 | x6 | x6 | x6 | x6 | x6 | x6 | %76
 x6 | x6 | x6 | x6 | x6 | x6 | x6 | x6 | x6 | x6 | x6 ||[K:Bb] [B,,D,]2 z [A,,D,]2 z | %88
 [G,,E,]2 z [A,,E,]2 z | [B,,D,]2 z [A,,D,]2 z | [G,,E,]2 z [A,,E,]2 z || x6 | x6 | x6 | x6 | x6 | %96
 x6 | x6 | x6 | x6 | x6 | x6 | x6 | x6 | x6 | x6 | x6 | x6 | x6 | x6 | x6 | x6 | x6 | x6 | x6 | %115
 x6 | x6 | x6 | x6 | x6 | x6 | x6 | x6 |: x6 | x6 | x6 | x6 | x6 | x6 | x6 | x6 | x6 | x6 | x6 | %134
 x6 | x6 | x6 | x6 | x6 | x6 | x6 | x6 | x6 | x6 | x6 | x6 | x6 | x6 | x6 | x6 | x6 | x6 | x6 | %153
 x6 | x6 | x6 | x6 :|[K:F] x6 | x6 | x6 | x6 || x6 | x6 | x6 | x6 | x6 | x6 | x6 | x6 | x6 | x6 | %171
 x6 | x6 | x6 | x6 | x6 | x6 | x6 | x6 | x6 | x6 | x6 | x6 | x6 | x6 | x6 | x6 | x6 | x6 | x6 | %190
 x6 | x6 | x6 | x6 | x6 | x6 | x6 | x6 | x6 | x6 | x6 | x6 | x6 | x6 | x6 | x6 | x6 | x6 | x6 || %209
 x6 | x6 | x6 | x6 | x6 | x6 | x6 | x6 | x6 | x6 | x6 | x6 | x6 | x6 | x6 | x6 | x6 | x6 | x6 | %228
 x6 | x6 | x6 | x6 | x6 | x6 | x6 | x6 | x6 | x6 | x6 | x6 | x6 |] %241

